X:324
T:Giant Irishman, The
R:jig
D:Mair\'ead N\'i Mhaonaigh & Frankie Kennedy: Ceol Aduaidh
Z:id:hn-jig-324
M:6/8
K:D
Add deg|~f3 gfe|Add deg|fed ~B3|
Add deg|~f3 gfe|~f3 gfe|1 cde d2B:|2 cde d2f||
|:agf gfe|fag fed|agf gfe|fed efg|
agf gfe|fag fed|~e3 gfe|1 cde d2f:|2 cde d2B||

